front/public/static/landing/logos/gray/decagon.svg

<svg width="600" height="300" viewBox="0 -17.25 149 74.5" fill="none" xmlns="http://www.w3.org/2000/svg">
<path d="M33.222 15.6273L26.7062 11.8196V6.49695L37.7615 12.9568V25.8949L33.222 23.2424V15.6273Z" fill="#364153"/>
<path d="M5.18248 24.3788L11.6982 28.1861V33.5096L0.642578 27.0497V14.1116L5.18248 16.7642V24.3788Z" fill="#364153"/>
<path d="M25.7179 13.535L8.13136 23.8113L12.6861 26.4727L30.2728 16.1966L25.7179 13.535Z" fill="#364153"/>
<path d="M31.2458 23.2416L13.6744 33.5092V28.1861L31.2458 17.9193V23.2416Z" fill="#364153"/>
<path d="M25.7183 34.0866L21.1632 31.4252L32.2341 24.9562L36.7895 27.6179L25.7183 34.0866Z" fill="#364153"/>
<path d="M24.73 6.49697L7.15868 16.7645V22.0868L24.73 11.8196V6.49697Z" fill="#364153"/>
<path d="M6.17004 15.0503L17.2409 8.58128L12.6861 5.91992L1.61523 12.3886L6.17004 15.0503Z" fill="#364153"/>
<path d="M137.789 15.736H140.597V17.32C140.965 16.744 141.453 16.28 142.061 15.928C142.685 15.56 143.413 15.376 144.245 15.376C145.077 15.376 145.797 15.552 146.405 15.904C147.029 16.24 147.501 16.744 147.821 17.416C148.157 18.072 148.325 18.872 148.325 19.816V28H145.445V20.056C145.445 19.352 145.277 18.792 144.941 18.376C144.621 17.944 144.109 17.728 143.405 17.728C142.925 17.728 142.477 17.848 142.061 18.088C141.645 18.328 141.309 18.712 141.053 19.24C140.797 19.752 140.669 20.392 140.669 21.16V28H137.789V15.736Z" fill="#364153"/>
<path d="M128.989 28.36C127.805 28.36 126.733 28.088 125.773 27.544C124.813 26.984 124.061 26.208 123.517 25.216C122.973 24.224 122.701 23.104 122.701 21.856C122.701 20.624 122.973 19.512 123.517 18.52C124.061 17.528 124.813 16.76 125.773 16.216C126.733 15.656 127.805 15.376 128.989 15.376C130.157 15.376 131.221 15.656 132.181 16.216C133.141 16.76 133.893 17.528 134.437 18.52C134.981 19.512 135.253 20.624 135.253 21.856C135.253 23.104 134.981 24.224 134.437 25.216C133.893 26.208 133.141 26.984 132.181 27.544C131.221 28.088 130.157 28.36 128.989 28.36ZM128.989 26.032C129.661 26.032 130.245 25.872 130.741 25.552C131.237 25.2319 131.621 24.7599 131.893 24.136C132.181 23.4959 132.325 22.736 132.325 21.856C132.325 20.992 132.181 20.248 131.893 19.624C131.621 19 131.237 18.528 130.741 18.208C130.245 17.872 129.661 17.704 128.989 17.704C128.317 17.704 127.725 17.872 127.213 18.208C126.717 18.528 126.325 19 126.037 19.624C125.765 20.248 125.629 20.992 125.629 21.856C125.629 22.736 125.765 23.4959 126.037 24.136C126.325 24.7599 126.717 25.2319 127.213 25.552C127.725 25.872 128.317 26.032 128.989 26.032Z" fill="#364153"/>
<path d="M114.148 33.04C112.532 33.04 111.26 32.72 110.332 32.08C109.42 31.44 108.876 30.504 108.7 29.272H111.676C111.804 29.8 112.076 30.192 112.492 30.448C112.924 30.704 113.508 30.832 114.244 30.832C115.252 30.832 116.012 30.576 116.524 30.064C117.036 29.552 117.292 28.808 117.292 27.832V25.768C116.972 26.344 116.492 26.808 115.852 27.16C115.228 27.512 114.484 27.688 113.62 27.688C112.612 27.688 111.692 27.456 110.86 26.992C110.028 26.512 109.372 25.808 108.892 24.88C108.412 23.952 108.172 22.84 108.172 21.544C108.172 20.264 108.412 19.16 108.892 18.232C109.372 17.304 110.028 16.6 110.86 16.12C111.692 15.64 112.612 15.4 113.62 15.4C114.452 15.4 115.196 15.584 115.852 15.952C116.508 16.304 116.988 16.76 117.292 17.32V15.736H120.148V27.712C120.148 28.736 119.932 29.648 119.5 30.448C119.084 31.248 118.428 31.88 117.532 32.344C116.636 32.808 115.508 33.04 114.148 33.04ZM114.196 25.48C114.82 25.48 115.364 25.312 115.828 24.976C116.308 24.64 116.676 24.176 116.932 23.584C117.204 22.976 117.34 22.296 117.34 21.544C117.34 20.776 117.204 20.096 116.932 19.504C116.676 18.912 116.308 18.448 115.828 18.112C115.364 17.776 114.82 17.608 114.196 17.608C113.556 17.608 113.004 17.768 112.54 18.088C112.076 18.408 111.724 18.864 111.484 19.456C111.244 20.032 111.124 20.728 111.124 21.544C111.124 22.776 111.388 23.744 111.916 24.448C112.444 25.136 113.204 25.48 114.196 25.48Z" fill="#364153"/>
<path d="M98.9908 28.336C97.7588 28.336 96.7188 28.016 95.8708 27.376C95.0388 26.72 94.6228 25.8 94.6228 24.616C94.6228 23.704 94.8708 22.992 95.3668 22.48C95.8788 21.952 96.4708 21.584 97.1428 21.376C97.8148 21.168 98.5988 21 99.4948 20.872L100.383 20.776C101.007 20.696 101.487 20.6 101.823 20.488C102.175 20.376 102.431 20.216 102.591 20.008C102.767 19.8 102.855 19.504 102.855 19.12C102.855 18.608 102.663 18.208 102.279 17.92C101.911 17.616 101.383 17.464 100.695 17.464C100.023 17.464 99.4788 17.6 99.0628 17.872C98.6468 18.128 98.3908 18.472 98.2948 18.904H95.1508C95.2948 18.216 95.5988 17.608 96.0628 17.08C96.5428 16.552 97.1748 16.136 97.9588 15.832C98.7428 15.528 99.6628 15.376 100.719 15.376C101.839 15.376 102.767 15.528 103.503 15.832C104.239 16.12 104.783 16.552 105.135 17.128C105.503 17.704 105.687 18.4 105.687 19.216V25.048C105.687 25.528 105.727 26.032 105.807 26.56C105.887 27.072 105.983 27.552 106.095 28H103.239C103.111 27.424 103.023 26.888 102.975 26.392C102.639 26.936 102.127 27.4 101.439 27.784C100.767 28.152 99.9508 28.336 98.9908 28.336ZM99.7828 26.128C100.391 26.128 100.927 25.992 101.391 25.72C101.855 25.448 102.215 25.072 102.471 24.592C102.727 24.096 102.855 23.552 102.855 22.96V21.64C102.647 21.912 102.359 22.128 101.991 22.288C101.639 22.432 101.103 22.56 100.383 22.672C99.4228 22.832 98.7268 23.032 98.2948 23.272C97.8628 23.512 97.6468 23.928 97.6468 24.52C97.6468 25.032 97.8468 25.432 98.2468 25.72C98.6468 25.992 99.1588 26.128 99.7828 26.128Z" fill="#364153"/>
<path d="M87.504 28.36C86.336 28.36 85.288 28.096 84.36 27.568C83.432 27.04 82.704 26.296 82.176 25.336C81.664 24.36 81.408 23.208 81.408 21.88C81.408 20.6 81.672 19.472 82.2 18.496C82.728 17.504 83.456 16.744 84.384 16.216C85.328 15.672 86.392 15.4 87.576 15.4C88.6 15.4 89.504 15.592 90.288 15.976C91.088 16.344 91.72 16.848 92.184 17.488C92.664 18.128 92.968 18.84 93.096 19.624H90.24C90.048 19.048 89.728 18.592 89.28 18.256C88.848 17.92 88.296 17.752 87.624 17.752C87 17.752 86.448 17.912 85.968 18.232C85.488 18.552 85.104 19.024 84.816 19.648C84.544 20.272 84.408 21.016 84.408 21.88C84.408 22.76 84.544 23.512 84.816 24.136C85.104 24.7439 85.48 25.208 85.944 25.528C86.424 25.832 86.968 25.984 87.576 25.984C88.28 25.984 88.848 25.816 89.28 25.48C89.728 25.144 90.056 24.696 90.264 24.136H93.096C92.984 24.9039 92.688 25.616 92.208 26.272C91.728 26.912 91.08 27.424 90.264 27.808C89.464 28.176 88.544 28.36 87.504 28.36Z" fill="#364153"/>
<path d="M73.7535 28.36C72.4575 28.36 71.3295 28.096 70.3695 27.568C69.4095 27.024 68.6655 26.264 68.1375 25.288C67.6255 24.312 67.3695 23.176 67.3695 21.88C67.3695 20.632 67.6495 19.512 68.2095 18.52C68.7695 17.528 69.5215 16.76 70.4655 16.216C71.4095 15.656 72.4335 15.376 73.5375 15.376C74.7695 15.376 75.8415 15.664 76.7535 16.24C77.6815 16.816 78.4015 17.656 78.9135 18.76C79.4255 19.848 79.6895 21.16 79.7055 22.696H69.0255V20.584H77.9295L76.9215 21.496C76.9055 20.344 76.6095 19.416 76.0335 18.712C75.4575 18.008 74.6575 17.656 73.6335 17.656C73.0095 17.656 72.4415 17.816 71.9295 18.136C71.4335 18.44 71.0335 18.872 70.7295 19.432C70.4415 19.976 70.2975 20.576 70.2975 21.232V22.36C70.2975 23.08 70.4495 23.728 70.7535 24.304C71.0575 24.864 71.4655 25.304 71.9775 25.624C72.5055 25.944 73.1135 26.104 73.8015 26.104C74.4415 26.104 74.9695 25.984 75.3855 25.744C75.8175 25.504 76.1375 25.184 76.3455 24.784H79.3695C79.0495 25.872 78.3935 26.744 77.4015 27.4C76.4255 28.04 75.2095 28.36 73.7535 28.36Z" fill="#364153"/>
<path d="M51.2012 11.2H56.7212C58.4012 11.2 59.9132 11.552 61.2572 12.256C62.6012 12.96 63.6492 13.952 64.4012 15.232C65.1692 16.496 65.5532 17.952 65.5532 19.6C65.5532 21.248 65.1692 22.712 64.4012 23.992C63.6492 25.256 62.6012 26.24 61.2572 26.944C59.9132 27.648 58.4012 28 56.7212 28H51.2012V11.2ZM56.4812 25.432C57.7452 25.432 58.8252 25.208 59.7212 24.76C60.6332 24.296 61.3212 23.632 61.7852 22.768C62.2652 21.888 62.5052 20.832 62.5052 19.6C62.5052 18.368 62.2652 17.32 61.7852 16.456C61.3212 15.576 60.6332 14.912 59.7212 14.464C58.8252 14 57.7452 13.768 56.4812 13.768H54.2252V25.432H56.4812Z" fill="#364153"/>
</svg>

<svg fill="none" height="300" viewBox="0 -17.25 149 74.5" width="600" xmlns="http://www.w3.org/2000/svg"><g fill="#364153"><path d="m33.222 15.6273-6.5158-3.8077v-5.32265l11.0553 6.45985v12.9381l-4.5395-2.6525z"/><path d="m5.18248 24.3788 6.51572 3.8073v5.3235l-11.055622-6.4599v-12.9381l4.539902 2.6526z"/><path d="m25.7179 13.535-17.58654 10.2763 4.55474 2.6614 17.5867-10.2761z"/><path d="m31.2458 23.2416-17.5714 10.2676v-5.3231l17.5714-10.2668z"/><path d="m25.7183 34.0866-4.5551-2.6614 11.0709-6.469 4.5554 2.6617z"/><path d="m24.73 6.49697-17.57132 10.26753v5.3223l17.57132-10.2672z"/><path d="m6.17004 15.0503 11.07086-6.46902-4.5548-2.66136-11.07087 6.46868z"/><path d="m137.789 15.736h2.808v1.584c.368-.576.856-1.04 1.464-1.392.624-.368 1.352-.552 2.184-.552s1.552.176 2.16.528c.624.336 1.096.84 1.416 1.512.336.656.504 1.456.504 2.4v8.184h-2.88v-7.944c0-.704-.168-1.264-.504-1.68-.32-.432-.832-.648-1.536-.648-.48 0-.928.12-1.344.36s-.752.624-1.008 1.152c-.256.512-.384 1.152-.384 1.92v6.84h-2.88z"/><path d="m128.989 28.36c-1.184 0-2.256-.272-3.216-.816-.96-.56-1.712-1.336-2.256-2.328s-.816-2.112-.816-3.36c0-1.232.272-2.344.816-3.336s1.296-1.76 2.256-2.304c.96-.56 2.032-.84 3.216-.84 1.168 0 2.232.28 3.192.84.96.544 1.712 1.312 2.256 2.304s.816 2.104.816 3.336c0 1.248-.272 2.368-.816 3.36s-1.296 1.768-2.256 2.328c-.96.544-2.024.816-3.192.816zm0-2.328c.672 0 1.256-.16 1.752-.48.496-.3201.88-.7921 1.152-1.416.288-.6401.432-1.4.432-2.28 0-.864-.144-1.608-.432-2.232-.272-.624-.656-1.096-1.152-1.416-.496-.336-1.08-.504-1.752-.504s-1.264.168-1.776.504c-.496.32-.888.792-1.176 1.416-.272.624-.408 1.368-.408 2.232 0 .88.136 1.6399.408 2.28.288.6239.68 1.0959 1.176 1.416.512.32 1.104.48 1.776.48z"/><path d="m114.148 33.04c-1.616 0-2.888-.32-3.816-.96-.912-.64-1.456-1.576-1.632-2.808h2.976c.128.528.4.92.816 1.176.432.256 1.016.384 1.752.384 1.008 0 1.768-.256 2.28-.768s.768-1.256.768-2.232v-2.064c-.32.576-.8 1.04-1.44 1.392-.624.352-1.368.528-2.232.528-1.008 0-1.928-.232-2.76-.696-.832-.48-1.488-1.184-1.968-2.112s-.72-2.04-.72-3.336c0-1.28.24-2.384.72-3.312s1.136-1.632 1.968-2.112 1.752-.72 2.76-.72c.832 0 1.576.184 2.232.552.656.352 1.136.808 1.44 1.368v-1.584h2.856v11.976c0 1.024-.216 1.936-.648 2.736-.416.8-1.072 1.432-1.968 1.896s-2.024.696-3.384.696zm.048-7.56c.624 0 1.168-.168 1.632-.504.48-.336.848-.8 1.104-1.392.272-.608.408-1.288.408-2.04 0-.768-.136-1.448-.408-2.04-.256-.592-.624-1.056-1.104-1.392-.464-.336-1.008-.504-1.632-.504-.64 0-1.192.16-1.656.48s-.816.776-1.056 1.368c-.24.576-.36 1.272-.36 2.088 0 1.232.264 2.2.792 2.904.528.688 1.288 1.032 2.28 1.032z"/><path d="m98.9908 28.336c-1.232 0-2.272-.32-3.12-.96-.832-.656-1.248-1.576-1.248-2.76 0-.912.248-1.624.744-2.136.512-.528 1.104-.896 1.776-1.104s1.456-.376 2.352-.504l.8882-.096c.624-.08 1.104-.176 1.44-.288.352-.112.608-.272.768-.48.176-.208.264-.504.264-.888 0-.512-.192-.912-.576-1.2-.368-.304-.896-.456-1.584-.456-.672 0-1.2162.136-1.6322.408-.416.256-.672.6-.768 1.032h-3.144c.144-.688.448-1.296.912-1.824.48-.528 1.112-.944 1.896-1.248s1.704-.456 2.7602-.456c1.12 0 2.048.152 2.784.456.736.288 1.28.72 1.632 1.296.368.576.552 1.272.552 2.088v5.832c0 .48.04.984.12 1.512.08.512.176.992.288 1.44h-2.856c-.128-.576-.216-1.112-.264-1.608-.336.544-.848 1.008-1.536 1.392-.672.368-1.4882.552-2.4482.552zm.792-2.208c.6082 0 1.1442-.136 1.6082-.408s.824-.648 1.08-1.128c.256-.496.384-1.04.384-1.632v-1.32c-.208.272-.496.488-.864.648-.352.144-.888.272-1.608.384-.9602.16-1.6562.36-2.0882.6s-.648.656-.648 1.248c0 .512.2.912.6 1.2.4.272.912.408 1.536.408z"/><path d="m87.504 28.36c-1.168 0-2.216-.264-3.144-.792s-1.656-1.272-2.184-2.232c-.512-.976-.768-2.128-.768-3.456 0-1.28.264-2.408.792-3.384.528-.992 1.256-1.752 2.184-2.28.944-.544 2.008-.816 3.192-.816 1.024 0 1.928.192 2.712.576.8.368 1.432.872 1.896 1.512.48.64.784 1.352.912 2.136h-2.856c-.192-.576-.512-1.032-.96-1.368-.432-.336-.984-.504-1.656-.504-.624 0-1.176.16-1.656.48s-.864.792-1.152 1.416c-.272.624-.408 1.368-.408 2.232 0 .88.136 1.632.408 2.256.288.6079.664 1.072 1.128 1.392.48.304 1.024.456 1.632.456.704 0 1.272-.168 1.704-.504.448-.336.776-.784.984-1.344h2.832c-.112.7679-.408 1.48-.888 2.136-.48.64-1.128 1.152-1.944 1.536-.8.368-1.72.552-2.76.552z"/><path d="m73.7535 28.36c-1.296 0-2.424-.264-3.384-.792-.96-.544-1.704-1.304-2.232-2.28-.512-.976-.768-2.112-.768-3.408 0-1.248.28-2.368.84-3.36s1.312-1.76 2.256-2.304c.944-.56 1.968-.84 3.072-.84 1.232 0 2.304.288 3.216.864.928.576 1.648 1.416 2.16 2.52.512 1.088.776 2.4.792 3.936h-10.68v-2.112h8.904l-1.008.912c-.016-1.152-.312-2.08-.888-2.784s-1.376-1.056-2.4-1.056c-.624 0-1.192.16-1.704.48-.496.304-.896.736-1.2 1.296-.288.544-.432 1.144-.432 1.8v1.128c0 .72.152 1.368.456 1.944.304.56.712 1 1.224 1.32.528.32 1.136.48 1.824.48.64 0 1.168-.12 1.584-.36.432-.24.752-.56.96-.96h3.024c-.32 1.088-.976 1.96-1.968 2.616-.976.64-2.192.96-3.648.96z"/><path d="m51.2012 11.2h5.52c1.68 0 3.192.352 4.536 1.056s2.392 1.696 3.144 2.976c.768 1.264 1.152 2.72 1.152 4.368s-.384 3.112-1.152 4.392c-.752 1.264-1.8 2.248-3.144 2.952s-2.856 1.056-4.536 1.056h-5.52zm5.28 14.232c1.264 0 2.344-.224 3.24-.672.912-.464 1.6-1.128 2.064-1.992.48-.88.72-1.936.72-3.168s-.24-2.28-.72-3.144c-.464-.88-1.152-1.544-2.064-1.992-.896-.464-1.976-.696-3.24-.696h-2.256v11.664z"/></g></svg>
